assets/icons/qvision/assignment_turned_in.svg

<svg xmlns="http://www.w3.org/2000/svg" height="24" viewBox="0 0 24 24" width="24"><path d="M0 0h24v24H0z" fill="none"/><path d="M19 3h-4.18C14.4 1.84 13.3 1 12 1c-1.3 0-2.4.84-2.82 2H5c-1.1 0-2 .9-2 2v14c0 1.1.9 2 2 2h14c1.1 0 2-.9 2-2V5c0-1.1-.9-2-2-2zm-7 0c.55 0 1 .45 1 1s-.45 1-1 1-1-.45-1-1 .45-1 1-1zm-2 14l-4-4 1.41-1.41L10 14.17l6.59-6.59L18 9l-8 8z"/></svg>

<svg width="24" height="24" viewBox="0 0 24 24" fill="none" xmlns="http://www.w3.org/2000/svg">
<g clip-path="url(#clip0_147_3925)">
<path d="M19 3H14.82C14.4 1.84 13.3 1 12 1C10.7 1 9.6 1.84 9.18 3H5C3.9 3 3 3.9 3 5V19C3 20.1 3.9 21 5 21H19C20.1 21 21 20.1 21 19V5C21 3.9 20.1 3 19 3ZM12 3C12.55 3 13 3.45 13 4C13 4.55 12.55 5 12 5C11.45 5 11 4.55 11 4C11 3.45 11.45 3 12 3ZM10 17L6 13L7.41 11.59L10 14.17L16.59 7.58L18 9L10 17Z" fill="#323232"/>
</g>
<defs>
<clipPath id="clip0_147_3925">
<rect width="24" height="24" fill="white"/>
</clipPath>
</defs>
</svg>
